X: 440
T: Shenhuir jianshang ni xiaolianlian
%%abc-version 2.0
%%abcx-abcm2ps-target-version 5.9.1 (29 Sep 2008)
%%abc-creator hum2abc beta
%%abcx-conversion-date 2013/10/02 07:52:30
%%abc-edited-by Helmut Schaffrath
%%humdrum-veritas 3601816950
%%humdrum-veritas-data 2644267349
%%continueall 1
%%barnumbers 0
L: 1/16
M: 2/4
K: D
A2 B2 e2 B A [I:setbarnb 1]| 
F A E D B B3 | 
A4G A3 | 
B2 B e B2 B B | 
B8 | 
A2 B2 e2 B A | 
F A E D B, B,3 | 
A4G A3 | 
B2 B e B,2 B, D | 
E8 |]  



